X:1
T: Jump At The Sun
C: John Kirkpatrick
Z: ceolachan
S: https://thesession.org/tunes/736#setting21016
R: jig
M: 6/8
L: 1/8
K: Emin
|:B|EGB ^A2 B|EGB ^A2 B|eBB eBB|BAG F3|
EGB ^A2 B|EGB ^A2 B|eBB cBA|GAF E2:|
|:B|eBB gfe|fBB agf|gfe gfe|fBB c2 B|
eBB gfe|fBB agf|e2 B cBA|GAF E2:|

